build/flags/SriLanka.svg

<svg xmlns="http://www.w3.org/2000/svg" fill="none" viewBox="0 0 28 28" focusable="false"><defs><filter id="Sri_Lanka_svg__a"><feColorMatrix values="0 0 0 0 1 0 0 0 0 1 0 0 0 0 1 0 0 0 1 0"/></filter></defs><mask id="Sri_Lanka_svg__b" width="28" height="20" x="0" y="4" maskUnits="userSpaceOnUse"><g filter="url(#Sri_Lanka_svg__a)"><rect width="28" height="20" y="4" fill="#FFF" rx="3"/><rect width="28" height="20" y="4" stroke="#969696" stroke-opacity="0" stroke-width="0" rx="3"/></g></mask><path fill="none" d="M0 0H28V28H0z"/><rect width="28" height="20" y="4" fill="#FFF" rx="3"/><rect width="28" height="20" y="4" rx="3"/><g mask="url(#Sri_Lanka_svg__b)"><path fill="#FFBF19" d="M0 4H28V24H0z"/><path d="M0 4H28V24H0z"/><path fill="#A52531" fill-rule="evenodd" d="M10.6666 5.33337L25.3333 5.33337C26.0697 5.33337 26.6666 5.93033 26.6666 6.66671L26.6666 21.3334C26.6666 22.0698 26.0697 22.6667 25.3333 22.6667L10.6666 22.6667L10.6666 5.33337Z"/><path d="M25.3333 5.33337C26.0697 5.33337 26.6666 5.93033 26.6666 6.66671L26.6666 21.3334C26.6666 22.0698 26.0697 22.6667 25.3333 22.6667L10.6666 22.6667L10.6666 5.33337L25.3333 5.33337Z"/><path fill="#03664F" fill-rule="evenodd" d="M5.33337 5.33337L5.33337 22.6667L2.66671 22.6667C1.93033 22.6667 1.33337 22.0698 1.33337 21.3334L1.33337 6.66671C1.33337 5.93033 1.93033 5.33337 2.66671 5.33337L5.33337 5.33337Z"/><path d="M5.33337 5.33337L5.33337 22.6667L2.66671 22.6667C1.93033 22.6667 1.33337 22.0698 1.33337 21.3334L1.33337 6.66671C1.33337 5.93033 1.93033 5.33337 2.66671 5.33337L5.33337 5.33337Z"/><rect width="4" height="17.333" x="5.333" y="5.333" fill="#FF6816" rx=".667"/><rect width="4" height="17.333" x="5.333" y="5.333" rx=".667"/><path fill="#FFBF18" fill-rule="evenodd" d="M12.6667 7.99996C13.0349 7.99996 13.3333 7.70148 13.3333 7.33329C13.3333 6.9651 13.0349 6.66663 12.6667 6.66663L12 6.66663L12 7.33329C12 7.70148 12.2985 7.99996 12.6667 7.99996ZM24.6667 7.99996C24.2985 7.99996 24 7.70148 24 7.33329C24 6.9651 24.2985 6.66663 24.6667 6.66663L25.3333 6.66663L25.3333 7.33329C25.3333 7.70148 25.0349 7.99996 24.6667 7.99996ZM12.6667 20C13.0349 20 13.3333 20.2984 13.3333 20.6666C13.3333 21.0348 13.0349 21.3333 12.6667 21.3333L12 21.3333L12 20.6666C12 20.2984 12.2985 20 12.6667 20ZM24.6667 20C24.2985 20 24 20.2984 24 20.6666C24 21.0348 24.2985 21.3333 24.6667 21.3333L25.3333 21.3333L25.3333 20.6666C25.3333 20.2984 25.0349 20 24.6667 20Z"/><path d="M12.6667 7.99996C13.0349 7.99996 13.3333 7.70148 13.3333 7.33329C13.3333 6.9651 13.0349 6.66663 12.6667 6.66663L12 6.66663L12 7.33329C12 7.70148 12.2985 7.99996 12.6667 7.99996ZM24.6667 7.99996C24.2985 7.99996 24 7.70148 24 7.33329C24 6.9651 24.2985 6.66663 24.6667 6.66663L25.3333 6.66663L25.3333 7.33329C25.3333 7.70148 25.0349 7.99996 24.6667 7.99996ZM12.6667 20C13.0349 20 13.3333 20.2984 13.3333 20.6666C13.3333 21.0348 13.0349 21.3333 12.6667 21.3333L12 21.3333L12 20.6666C12 20.2984 12.2985 20 12.6667 20ZM24.6667 20C24.2985 20 24 20.2984 24 20.6666C24 21.0348 24.2985 21.3333 24.6667 21.3333L25.3333 21.3333L25.3333 20.6666C25.3333 20.2984 25.0349 20 24.6667 20Z"/><path fill="#FFBF18" fill-rule="evenodd" d="M16 16.5736C16 16.2568 15.7432 16 15.4264 16L15.4264 16C15.3647 16 15.3037 15.9902 15.2456 15.9694C14.8599 15.8316 13.3333 15.2491 13.3333 14.6667C13.3333 14.3018 13.533 13.937 13.7138 13.6814C13.8712 13.4589 13.9298 13.1697 13.8332 12.9148C13.6066 12.3169 13.2397 11.2284 13.3333 10.6667C13.3832 10.3675 13.5824 10.1056 13.8122 9.8949C14.1678 9.56881 14.6667 9.87699 14.6667 10.3595L14.6667 12.9213C14.6667 13.1738 14.8093 13.4047 15.0352 13.5176L15.7117 13.8559C15.8839 13.942 16.0918 13.9082 16.2279 13.7721L16.2279 13.7721C16.4438 13.5563 16.3847 13.1924 16.1117 13.0559L15.3333 12.6667L15.3333 12L15.3333 12C15.6655 12 15.7712 11.5523 15.4741 11.4037L15.3333 11.3334L15.3333 10.6667L16.3905 10.6667C16.5673 10.6667 16.7369 10.5964 16.8619 10.4714L17.1381 10.1953C17.2631 10.0703 17.4326 10 17.6095 10L18.2546 10C18.5071 10 18.738 10.1427 18.8509 10.3685L19.2098 11.0864C19.2889 11.2445 19.3019 11.4276 19.246 11.5953L18.9591 12.4559C18.8153 12.8876 19.1366 13.3334 19.5916 13.3334L21.7832 13.3334C21.922 13.3334 22.0551 13.2782 22.1533 13.1801L22.1533 13.1801C22.4058 12.9275 22.3367 12.5017 22.0173 12.342L21.4741 12.0704C21.3815 12.0241 21.2794 12 21.1759 12L20.6667 12C20.2985 12 20 11.7015 20 11.3334L20 10.9428C20 10.766 20.0702 10.5964 20.1952 10.4714L20.6667 10L20.6667 10.6667C20.6667 11.0349 20.9651 11.3334 21.3333 11.3334L21.3333 11.3334L22.2546 11.3334C22.5071 11.3334 22.738 11.476 22.8509 11.7019L23.2799 12.5598C23.3152 12.6305 23.3377 12.7066 23.3449 12.7853C23.3756 13.1209 23.4487 14.0897 23.3333 14.6667C23.2398 15.1342 22.978 15.5669 22.8117 15.8061C22.7223 15.9347 22.6667 16.0858 22.6667 16.2424L22.6667 18.1574C22.6667 18.4387 22.4386 18.6667 22.1574 18.6667L22.1574 18.6667C21.7788 18.6667 21.5325 18.2683 21.7018 17.9296L21.9296 17.4741C21.9739 17.3855 21.9739 17.2812 21.9296 17.1926L21.8981 17.1296C21.7574 16.8482 21.3333 16.9484 21.3333 17.263L21.3333 17.263C21.3333 17.3093 21.3225 17.3549 21.3018 17.3963L20.8315 18.3371C20.7305 18.5391 20.524 18.6667 20.2981 18.6667L20.2981 18.6667C19.8549 18.6667 19.5666 18.2002 19.7648 17.8037L19.9296 17.4741C19.9759 17.3815 20 17.2795 20 17.176L20 16.6667C20 16.2985 19.7015 16 19.3333 16L18 16C17.6318 16 17.3333 16.2985 17.3333 16.6667L17.3333 17.176C17.3333 17.2795 17.3092 17.3815 17.2629 17.4741L16.8315 18.3371C16.7305 18.5391 16.524 18.6667 16.2981 18.6667L16.2981 18.6667C15.8549 18.6667 15.5666 18.2002 15.7648 17.8037L15.9296 17.4741C15.9759 17.3815 16 17.2795 16 17.176L16 16.5736Z"/><path d="M13.3333 14.6667C13.3333 14.3019 13.5329 13.9372 13.7136 13.6816C13.871 13.4591 13.9295 13.169 13.8329 12.9141C13.6063 12.316 13.2397 11.2281 13.3333 10.6667C13.3832 10.3675 13.5824 10.1056 13.8122 9.8949C14.1678 9.5688 14.6667 9.87699 14.6667 10.3595L14.6667 12.9213C14.6667 13.1738 14.8093 13.4047 15.0352 13.5176L15.7117 13.8559C15.8839 13.942 16.0918 13.9082 16.2279 13.7721C16.4438 13.5563 16.3847 13.1924 16.1117 13.0559L15.3333 12.6667L15.3333 12C15.6655 12 15.7712 11.5523 15.4741 11.4037L15.3333 11.3334L15.3333 10.6667L16.3905 10.6667C16.5673 10.6667 16.7369 10.5964 16.8619 10.4714L17.1381 10.1953C17.2631 10.0703 17.4326 10 17.6095 10L18.2546 10C18.5071 10 18.738 10.1427 18.8509 10.3685L19.2098 11.0864C19.2889 11.2445 19.3019 11.4276 19.246 11.5953L18.9591 12.4559C18.8153 12.8876 19.1366 13.3334 19.5916 13.3334L21.7832 13.3334C21.922 13.3334 22.0551 13.2782 22.1533 13.1801C22.4058 12.9275 22.3367 12.5017 22.0173 12.342L21.4741 12.0704C21.3815 12.0241 21.2794 12 21.1759 12L20.6667 12C20.2985 12 20 11.7015 20 11.3334L20 10.9428C20 10.766 20.0702 10.5964 20.1952 10.4714L20.6667 10L20.6667 10.6667C20.6667 11.0349 20.9651 11.3334 21.3333 11.3334L22.2546 11.3334C22.5071 11.3334 22.738 11.476 22.8509 11.7019L23.2799 12.5598C23.3152 12.6305 23.3378 12.7069 23.345 12.7857C23.3756 13.1215 23.4487 14.0899 23.3333 14.6667C23.2398 15.1341 22.9782 15.5667 22.8118 15.806C22.7224 15.9345 22.6667 16.0858 22.6667 16.2424L22.6667 18.1574C22.6667 18.4387 22.4386 18.6667 22.1574 18.6667C21.7788 18.6667 21.5325 18.2683 21.7018 17.9296L21.9296 17.4741C21.9739 17.3855 21.9739 17.2812 21.9296 17.1926L21.8981 17.1296C21.7574 16.8482 21.3333 16.9484 21.3333 17.263C21.3333 17.3093 21.3225 17.3549 21.3018 17.3963L20.8315 18.3371C20.7305 18.5391 20.524 18.6667 20.2981 18.6667C19.8549 18.6667 19.5666 18.2002 19.7648 17.8037L19.9296 17.4741C19.9759 17.3815 20 17.2795 20 17.176L20 16.6667C20 16.2985 19.7015 16 19.3333 16L18 16C17.6318 16 17.3333 16.2985 17.3333 16.6667L17.3333 17.176C17.3333 17.2795 17.3092 17.3815 17.2629 17.4741L16.8315 18.3371C16.7305 18.5391 16.524 18.6667 16.2981 18.6667C15.8549 18.6667 15.5666 18.2002 15.7648 17.8037L15.9296 17.4741C15.9759 17.3815 16 17.2795 16 17.176L16 16.5736C16 16.2568 15.7432 16 15.4264 16C15.3647 16 15.3035 15.9901 15.2454 15.9694C14.8594 15.8314 13.3333 15.249 13.3333 14.6667Z"/></g></svg>

<svg xmlns="http://www.w3.org/2000/svg" fill="none" viewBox="0 0 28 28" focusable="false"><path fill="none" d="M0 0h28v28H0z"/><rect width="28" height="20" y="4" fill="#FFF" rx="3"/><rect width="28" height="20" y="4" rx="3"/><mask id="Sri_Lanka_svg__a" width="28" height="20" x="0" y="4" mask-type="alpha" maskUnits="userSpaceOnUse"><rect width="28" height="20" y="4" fill="#FFF" rx="3"/><rect width="28" height="20" y="4" stroke="#979797" stroke-opacity="0" stroke-width="0" rx="3"/></mask><g mask="url(#Sri_Lanka_svg__a)"><path fill="#FFBF19" d="M0 4h28v20H0z"/><path d="M0 4h28v20H0z"/></g><g mask="url(#Sri_Lanka_svg__a)"><path fill="#A52531" fill-rule="evenodd" d="M10.66 5.33h14.67c.73 0 1.33.6 1.33 1.33v14.67c0 .73-.6 1.33-1.33 1.33H10.66z"/><path d="M25.33 5.33c.73 0 1.33.6 1.33 1.33v14.67c0 .73-.6 1.33-1.33 1.33H10.66V5.33z"/></g><g mask="url(#Sri_Lanka_svg__a)"><path fill="#03664F" fill-rule="evenodd" d="M2.66 5.33h2.67v17.33H2.66c-.73 0-1.33-.6-1.33-1.33V6.66c0-.73.6-1.33 1.33-1.33"/><path d="M5.33 5.33v17.33H2.66c-.73 0-1.33-.6-1.33-1.33V6.66c0-.73.6-1.33 1.33-1.33z"/></g><g mask="url(#Sri_Lanka_svg__a)"><rect width="4" height="17.333" x="5.333" y="5.333" fill="#FF6816" rx=".667"/><rect width="4" height="17.333" x="5.333" y="5.333" rx=".667"/></g><g mask="url(#Sri_Lanka_svg__a)"><mask id="Sri_Lanka_svg__b" fill="#fff"><path fill-rule="evenodd" d="M13.333 7.333a.667.667 0 1 1-1.333 0v-.666h.667c.368 0 .666.298.666.666m10.667 0a.667.667 0 0 0 1.333 0v-.666h-.666a.667.667 0 0 0-.667.666M13.333 20.667a.667.667 0 1 0-1.333 0v.666h.667a.667.667 0 0 0 .666-.666M24.667 20a.667.667 0 1 0 0 1.333h.666v-.666a.667.667 0 0 0-.666-.667" clip-rule="evenodd"/></mask><path fill="#FFBF18" fill-rule="evenodd" d="M13.333 7.333a.667.667 0 1 1-1.333 0v-.666h.667c.368 0 .666.298.666.666m10.667 0a.667.667 0 0 0 1.333 0v-.666h-.666a.667.667 0 0 0-.667.666M13.333 20.667a.667.667 0 1 0-1.333 0v.666h.667a.667.667 0 0 0 .666-.666M24.667 20a.667.667 0 1 0 0 1.333h.666v-.666a.667.667 0 0 0-.666-.667" clip-rule="evenodd" mask="url(#Sri_Lanka_svg__b)"/></g><g mask="url(#Sri_Lanka_svg__a)"><path fill="#FFBF18" fill-rule="evenodd" d="M16 16.57c0-.32-.26-.57-.58-.57-.06 0-.12-.01-.18-.04-.39-.13-1.91-.72-1.91-1.3 0-.36.2-.73.38-.98.16-.23.21-.52.12-.77-.23-.6-.6-1.69-.5-2.25.05-.3.25-.56.48-.77.35-.33.85-.02.85.46v2.57c0 .25.14.48.37.59l.68.34c.17.09.38.05.51-.08a.45.45 0 0 0-.11-.72l-.78-.39V12c.33 0 .44-.45.14-.6l-.14-.07v-.67h1.06c.17 0 .34-.07.47-.19l.27-.28c.13-.12.3-.19.47-.19h.65c.25 0 .48.14.6.36l.35.72c.08.16.1.34.04.51l-.29.86c-.14.43.18.88.64.88h2.19c.14 0 .27-.06.37-.15.25-.26.18-.68-.14-.84l-.54-.27a.6.6 0 0 0-.3-.07h-.51c-.37 0-.66-.3-.66-.67v-.39c0-.18.07-.35.19-.47l.47-.47v.66c0 .37.3.67.67.67h.92c.25 0 .48.14.6.37l.42.85c.04.08.06.15.07.23.03.34.1 1.3-.01 1.88-.1.47-.36.9-.52 1.14-.09.13-.15.28-.15.44v1.91a.508.508 0 1 1-.96-.23l.22-.45a.28.28 0 0 0 0-.28l-.03-.07c-.14-.28-.56-.18-.56.14 0 .04-.01.09-.03.13l-.47.94c-.1.2-.31.33-.54.33-.44 0-.73-.46-.53-.86l.16-.33c.05-.09.08-.2.08-.3v-.51c0-.37-.3-.66-.67-.66H18c-.37 0-.67.29-.67.66v.51c0 .1-.03.21-.07.3l-.43.86c-.1.2-.31.33-.54.33-.44 0-.73-.46-.53-.86l.16-.33c.05-.09.08-.2.08-.3z"/><path d="M13.33 14.66c0-.36.2-.73.38-.98.16-.23.21-.52.12-.77-.23-.6-.6-1.69-.5-2.25.05-.3.25-.56.48-.77.35-.33.85-.02.85.46v2.57c0 .25.14.48.37.59l.68.34c.17.09.38.05.51-.08a.45.45 0 0 0-.11-.72l-.78-.39V12c.33 0 .44-.45.14-.6l-.14-.07v-.67h1.06c.17 0 .34-.07.47-.19l.27-.28c.13-.12.3-.19.47-.19h.65c.25 0 .48.14.6.36l.35.72c.08.16.1.34.04.51l-.29.86c-.14.43.18.88.64.88h2.19c.14 0 .27-.06.37-.15.25-.26.18-.68-.14-.84l-.54-.27a.6.6 0 0 0-.3-.07h-.51c-.37 0-.66-.3-.66-.67v-.39c0-.18.07-.35.19-.47l.47-.47v.66c0 .37.3.67.67.67h.92c.25 0 .48.14.6.37l.42.85c.04.08.07.15.07.23.03.34.1 1.3-.01 1.88-.1.47-.36.9-.52 1.14-.09.13-.15.28-.15.44v1.91a.508.508 0 1 1-.96-.23l.19-.39c.07-.13.07-.28 0-.41-.14-.28-.56-.18-.56.14 0 .04-.01.09-.03.13l-.47.94c-.1.2-.31.33-.54.33-.44 0-.73-.46-.53-.86l.16-.33c.05-.09.08-.2.08-.3v-.51c0-.37-.3-.66-.67-.66H18c-.37 0-.67.29-.67.66v.51c0 .1-.03.21-.07.3l-.43.86c-.1.2-.31.33-.54.33-.44 0-.73-.46-.53-.86l.16-.33c.05-.09.08-.2.08-.3v-.6c0-.32-.26-.57-.58-.57-.06 0-.12-.01-.18-.04-.39-.13-1.91-.72-1.91-1.3"/></g></svg>
